X: 7
T:Melusgan
M:3/4
L:1/8
Q:140
C:Trad
S:Blodau'r Grug Collection Vol. 1
R:Waltz
A:Wales
Z:brian_martin12345@yahoo.com
K:Am
E2|A2Ac BA|^Ge BG EB|c2ce dc|B4A^G|A2Ac BA|!=Ge BG EG|^FG/A/ GF 
\"aE^D|E4:||
ED|C2 CD EF|G2E2A^G|!A2Ac BA|A2^G2cd|ec Ae cA|dB ^Gf ed|c2 B/A/^G/A/ 
c/B/A/G/|A4:||
